launcher/android/assets/skins/day/svg/slider.svg

<svg enable-background="new 0 0 219.10 195.00" height="195" viewBox="0 0 219.1 195" width="219.1" xmlns="http://www.w3.org/2000/svg" xmlns:xlink="http://www.w3.org/1999/xlink"><linearGradient id="a" gradientUnits="objectBoundingBox" x1=".00000921285" x2="1.00001" y1=".499999" y2=".499999"><stop offset="0" stop-color="#8eb044"/><stop offset=".344186" stop-color="#586b2f"/><stop offset="1" stop-color="#23271b"/></linearGradient><linearGradient id="b" gradientTransform="matrix(-1 0 0 -1 2.037732 1.000052)" gradientUnits="objectBoundingBox" x1="1.01887" x2="2.05634" y1=".500026" y2=".500026"><stop offset="0" stop-color="#9bc049"/><stop offset="1" stop-color="#23271b"/></linearGradient><path d="m205.6.250427 0 0c7.318 0 13.25 5.932373 13.25 13.249973v167.9996c0 7.318-5.932 13.25-13.25 13.25l0 0c-7.318 0-13.25-5.932-13.25-13.25v-167.9996c0-7.3176 5.932-13.249973 13.25-13.249973z" fill="url(#a)" stroke="#000" stroke-linejoin="round" stroke-width=".5"/><path d="m200.543 184.519v-176.95046c0-2.63696 2.138-4.7749 4.776-4.7749l0 0c2.637 0 4.774 2.13794 4.774 4.7749v176.95046c0 2.637-2.137 4.775-4.774 4.775l0 0c-2.638 0-4.776-2.138-4.776-4.775z" fill="url(#b)" stroke-linejoin="round" stroke-width=".2"/></svg>

﻿<?xml version="1.0" encoding="utf-8"?>
<!DOCTYPE svg PUBLIC "-//W3C//DTD SVG 1.1//EN" "http://www.w3.org/Graphics/SVG/1.1/DTD/svg11.dtd">
<svg xmlns="http://www.w3.org/2000/svg" xmlns:xlink="http://www.w3.org/1999/xlink" version="1.1" baseProfile="full" width="219.1" height="195" viewBox="0 0 219.10 195.00" enable-background="new 0 0 219.10 195.00" xml:space="preserve">
	<linearGradient id="SVGID_Fill1_" gradientUnits="objectBoundingBox" x1="9.21285e-006" y1="0.499999" x2="1.00001" y2="0.499999">
		<stop offset="0" stop-color="#8EB044" stop-opacity="1"/>
		<stop offset="0.344186" stop-color="#586B2F" stop-opacity="1"/>
		<stop offset="1" stop-color="#23271B" stop-opacity="1"/>
	</linearGradient>
	<path fill="url(#SVGID_Fill1_)" stroke-width="0.5" stroke-linejoin="round" stroke="#000000" stroke-opacity="1" d="M 205.6,0.250427L 205.6,0.250427C 212.918,0.250427 218.85,6.1828 218.85,13.5004L 218.85,181.5C 218.85,188.818 212.918,194.75 205.6,194.75L 205.6,194.75C 198.282,194.75 192.35,188.818 192.35,181.5L 192.35,13.5004C 192.35,6.1828 198.282,0.250427 205.6,0.250427 Z "/>
	<linearGradient id="SVGID_Fill2_" gradientUnits="objectBoundingBox" x1="1.01887" y1="0.500026" x2="2.05634" y2="0.500026" gradientTransform="rotate(180.000000 1.018866 0.500026)">
		<stop offset="0" stop-color="#9BC049" stop-opacity="1"/>
		<stop offset="1" stop-color="#23271B" stop-opacity="1"/>
	</linearGradient>
	<path fill="url(#SVGID_Fill2_)" stroke-width="0.2" stroke-linejoin="round" d="M 200.543,184.519L 200.543,7.56854C 200.543,4.93158 202.681,2.79364 205.319,2.79364L 205.319,2.79364C 207.956,2.79364 210.093,4.93158 210.093,7.56854L 210.093,184.519C 210.093,187.156 207.956,189.294 205.319,189.294L 205.319,189.294C 202.681,189.294 200.543,187.156 200.543,184.519 Z "/>
</svg>
